img/brand/svg/gymnasium-logo-white.svg

<svg xmlns="http://www.w3.org/2000/svg" width="208" height="24" viewBox="0 0 208 24" role="img">
  <title>Gymnasium</title>
  <desc>Gymnasium logo in white.</desc>
  <g fill-rule="nonzero" fill="none">
    <path d="M194.640215 24c-.19184 0-.320065-.0845841-.415488-.2736545l-6.02557-13.3931504h-.369764l-1.982017 12.9732151c-.020874.1442905-.212714.3552533-.432386.3552533h-3.040617c-.16202 0-.290245-.0497554-.371752-.1442906-.087471-.1005058-.119279-.2487768-.094429-.4298864L185.927889.35923377C185.940811.2696741 186.002438 0 186.362263 0h.539737c.187864 0 .337956.08756945.414494.23882577l7.479777 16.06799903h.330005L202.608042.23484534C202.689549.07164774 202.812804 0 203.020548 0h.539737c.359824 0 .421451.2696741.432385.35226802l3.988884 22.74118918c.038765.1801144.015904.3234099-.063616.4229206-.076537.0935401-.207744.1452857-.369764.1452857h-3.075406c-.222654 0-.422446-.2199187-.46817-.3771457l-2.01283-12.9513227h-.370759l-5.961954 13.4011112c-.046718.1373248-.172954.2656937-.409524.2656937h-.609316m-26.386469-.3383365c-5.167756 0-9.215285-4.0072975-9.215285-9.1241397V.46471515c0-.23882577.224642-.46471515.4632-.46471515h3.209595c.286269 0 .464193.24081599.464193.46471515V14.3006883c0 3.0838378 2.135092 5.3208392 5.078297 5.3208392 2.963085 0 5.112093-2.224065 5.112093-5.2870056V.46471515C173.365839.240816 173.542769 0 173.829038 0h3.211583c.237564 0 .462206.22588938.462206.46471515V14.5375238c0 5.1168422-4.062439 9.1241397-9.249081 9.1241397m-19.684985-.3383365c-.238558 0-.464194-.2248943-.464194-.462725V.46471515c0-.23882577.225636-.46471515.464194-.46471515h3.142997c.238558 0 .462206.22588938.462206.46471515V22.860602c0 .2378307-.223648.462725-.462206.462725h-3.142997M134.08584 24c-4.365605 0-6.855551-2.1573928-7.309805-2.5892694-.294221-.2945518-.374734-.3741604-.136177-.797081l1.213663-2.0956962c.150092-.2637035.38865-.3025127.517869-.3025127.13717 0 .271359.0427897.366782.1174227l.105363.0696575c1.989969 1.3513559 3.755296 2.0648479 5.107123 2.0648479 1.824966 0 3.25333-1.2219919 3.25333-2.7833154 0-1.7115847-1.316043-2.9763662-4.402383-4.225226-2.679798-1.084667-6.24226-3.0052243-6.24226-7.1418857C126.559345 3.27489842 128.883295 0 133.985447 0c3.506798 0 6.154789 1.8588606 6.649796 2.23103077.125243.07662326.208738.20797744.243528.37117505.038765.18508998.008946.37117506-.080513.4985488l-1.28523 1.93349366c-.174942.26270835-.441332.43386682-.676908.43386682-.092441 0-.178918-.02587279-.257443-.07861348-1.143089-.7274235-3.207607-1.88970893-4.796998-1.88970893-1.973071 0-3.150949 1.2936396-3.150949 2.5464798 0 1.62202505 1.186824 2.76838876 4.098222 3.95555191 3.437219 1.3831992 6.949981 3.3525168 6.949981 7.4792271 0 3.159466-2.661906 6.5189485-7.593093 6.5189485m-38.1359483 0L81.8242943 8.47234431h-.2574435l-.0328017.17812422V23.1989386c0 .2219089-.1769302.4627249-.4641935.4627249h-3.0744122c-.2395517 0-.4641935-.2248943-.4641935-.4627249V.4308815c0-.2298698.2176839-.4308815.4641935-.4308815h.7663666l14.0580059 14.9524836h.2564496l.0347896-.1781242V.80305166c0-.22389916.1759363-.46471515.4622056-.46471515h3.1092019c.2385577 0 .4622055.22588938.4622055.46471515V23.5711087c0 .2278796-.2156959.4288913-.4622055.4288913h-.7325709m-37.4863593 0c-.1908462 0-.319071-.0845841-.415488-.2736545l-6.0255697-13.3931504h-.3697645l-1.9820168 12.9732151c-.0208738.1442905-.2127139.3552533-.4323858.3552533H46.197691c-.1620204 0-.2902452-.0497554-.3717524-.1442906-.0874711-.1005058-.1192788-.2487768-.0944291-.4298864L49.7512066.35923377C49.7641285.2696741 49.8257559 0 50.1855804 0h.5397368c.1878642 0 .3389507.08756945.414494.23882577l7.4797776 16.06799903h.3300049L66.4313593.23484534C66.5138605.07164774 66.6371153 0 66.8448593 0h.5387427c.3598246 0 .421452.2696741.4323859.35226802l3.9888834 22.74118918c.0387656.1801144.0159038.3234099-.0636154.4229206-.0765373.0935401-.207744.1452857-.3697644.1452857h-3.0754063c-.2226538 0-.4224459-.2199187-.4681694-.3771457l-2.0128306-12.9513227h-.3707584l-5.9619543 13.4011112C59.4356549 23.8716311 59.3094182 24 59.0728485 24h-.6093161m-26.3337873-.676673c-.2852752 0-.4622055-.240816-.4622055-.462725V12.0457749L23.9313125.7015507c-.0924411-.1502612-.1013871-.33137075-.0198798-.47765154C23.9909519.08159881 24.1420384 0 24.3249327 0h3.4461646c.1520805 0 .2783173.07363795.3956082.23285513l5.5504423 7.98772701L39.270572.22787959C39.3868689.07463305 39.5140997 0 39.6661802 0h3.4809543c.1819003 0 .3329868.0815988.4125061.22489427.0815072.14528568.0715673.32639522-.0258438.4836222L35.7011526 12.0109462V22.860602c0 .2378307-.2236479.462725-.4612116.462725h-3.1101959m-20.1770107.6428393C5.2502572 23.9661663 0 18.7249357 0 12.0338337 0 5.39845758 5.36257812 0 11.9527344 0c2.8994699 0 5.787012 1.10357409 8.1288533 3.10373995.099399.09951073.1590385.23285512.1590385.36818973 0 .11941289-.0467176.22787959-.1331947.31644415l-2.0983137 2.20217265c-.0974111.09652542-.1987981.14727589-.2981972.14727589-.103375 0-.2156959-.0537358-.3339807-.15822207-1.4611659-1.29463471-3.314958-2.0071316-5.2204375-2.0071316-4.27117669 0-7.74815505 3.60129364-7.74815505 8.0285264 0 4.3695166 3.49089422 7.9260304 7.78195075 7.9260304 1.9462331 0 3.4461646-.60204 4.0872884-.8597728l.1113269-.0447799v-3.1753876h-2.8805841c-.2644014 0-.4641935-.18509-.4641935-.4298864v-2.6718634c0-.2736545.1908461-.4647151.4641935-.4647151h6.4877752c.2286178 0 .4294039.2179285.4294039.4647151v8.6604196c0 .1651879-.0675914.2995274-.1978041.3960528-.0238558.0139315-3.4869183 2.1643585-8.2749699 2.1643585" fill="#FFF"/>
    <g fill="#ff5f14">
      <path d="M109.75 15.5460683L110.29740182 20 114.75 19.4529388 114.2006148 15 109.75 15.5460683"/>
      <path d="M113.8127304.00793358L110.54310409 0 101 23.6499996h4.1988468l6.9428735-17.70675708 6.9508071 17.70675708h4.1968634L113.8127304.00793358"/>
    </g>
  </g>
</svg>

<?xml version="1.0" encoding="UTF-8"?>
<svg width="208px" height="24px" viewBox="0 0 208 24" version="1.1" xmlns="http://www.w3.org/2000/svg" xmlns:xlink="http://www.w3.org/1999/xlink" role="img">
  <title>Gymnasium</title>
  <desc>Gymnasium logotype in white with the letter A displaying the pride flag color stripes: red, orange, yellow, green, blue, and violet.</desc>
  <defs>
    <polyline id="path-1" points="109.75 15.5460683 110.297402 20 114.75 19.4529388 114.200615 15 109.75 15.5460683"></polyline>
    <polyline id="path-2" points="113.81273 0.00793358 110.543104 0 101 23.6499996 105.198847 23.6499996 112.14172 5.94324252 119.092527 23.6499996 123.289391 23.6499996 113.81273 0.00793358"></polyline>
  </defs>
  <g id="gym-brand-logo-pride" stroke="none" stroke-width="1" fill="none" fill-rule="evenodd">
    <g id="gymnasium-logo-white">
    <path d="M194.640215,24 C194.448375,24 194.32015,23.9154159 194.224727,23.7263455 L188.199157,10.3331951 L187.829393,10.3331951 L185.847376,23.3064102 C185.826502,23.4507007 185.634662,23.6616635 185.41499,23.6616635 L182.374373,23.6616635 C182.212353,23.6616635 182.084128,23.6119081 182.002621,23.5173729 C181.91515,23.4168671 181.883342,23.2685961 181.908192,23.0874865 L185.927889,0.35923377 C185.940811,0.2696741 186.002438,0 186.362263,0 L186.902,0 C187.089864,0 187.239956,0.08756945 187.316494,0.23882577 L194.796271,16.3068248 L195.126276,16.3068248 L202.608042,0.23484534 C202.689549,0.07164774 202.812804,0 203.020548,0 L203.560285,0 C203.920109,0 203.981736,0.2696741 203.99267,0.35226802 L207.981554,23.0934572 C208.020319,23.2735716 207.997458,23.4168671 207.917938,23.5163778 C207.841401,23.6099179 207.710194,23.6616635 207.548174,23.6616635 L204.472768,23.6616635 C204.250114,23.6616635 204.050322,23.4417448 204.004598,23.2845178 L201.991768,10.3331951 L201.621009,10.3331951 L195.659055,23.7343063 C195.612337,23.8716311 195.486101,24 195.249531,24 L194.640215,24 M168.253746,23.6616635 C163.08599,23.6616635 159.038461,19.654366 159.038461,14.5375238 L159.038461,0.46471515 C159.038461,0.22588938 159.263103,0 159.501661,0 L162.711256,0 C162.997525,0 163.175449,0.24081599 163.175449,0.46471515 L163.175449,14.3006883 C163.175449,17.3845261 165.310541,19.6215275 168.253746,19.6215275 C171.216831,19.6215275 173.365839,17.3974625 173.365839,14.3345219 L173.365839,0.46471515 C173.365839,0.240816 173.542769,0 173.829038,0 L177.040621,0 C177.278185,0 177.502827,0.22588938 177.502827,0.46471515 L177.502827,14.5375238 C177.502827,19.654366 173.440388,23.6616635 168.253746,23.6616635 M148.568761,23.323327 C148.330203,23.323327 148.104567,23.0984327 148.104567,22.860602 L148.104567,0.46471515 C148.104567,0.22588938 148.330203,0 148.568761,0 L151.711758,0 C151.950316,0 152.173964,0.22588938 152.173964,0.46471515 L152.173964,22.860602 C152.173964,23.0984327 151.950316,23.323327 151.711758,23.323327 L148.568761,23.323327 M134.08584,24 C129.720235,24 127.230289,21.8426072 126.776035,21.4107306 C126.481814,21.1161788 126.401301,21.0365702 126.639858,20.6136496 L127.853521,18.5179534 C128.003613,18.2542499 128.242171,18.2154407 128.37139,18.2154407 C128.50856,18.2154407 128.642749,18.2582304 128.738172,18.3328634 L128.843535,18.4025209 C130.833504,19.7538768 132.598831,20.4673688 133.950658,20.4673688 C135.775624,20.4673688 137.203988,19.2453769 137.203988,17.6840534 C137.203988,15.9724687 135.887945,14.7076872 132.801605,13.4588274 C130.121807,12.3741604 126.559345,10.4536031 126.559345,6.3169417 C126.559345,3.27489842 128.883295,0 133.985447,0 C137.492245,0 140.140236,1.8588606 140.635243,2.23103077 C140.760486,2.30765403 140.843981,2.43900821 140.878771,2.60220582 C140.917536,2.7872958 140.887717,2.97338088 140.798258,3.10075462 L139.513028,5.03424828 C139.338086,5.29695663 139.071696,5.4681151 138.83612,5.4681151 C138.743679,5.4681151 138.657202,5.44224231 138.578677,5.38950162 C137.435588,4.66207812 135.37107,3.49979269 133.781679,3.49979269 C131.808608,3.49979269 130.63073,4.79343229 130.63073,6.04627249 C130.63073,7.66829754 131.817554,8.81466125 134.728952,10.0018244 C138.166171,11.3850236 141.678933,13.3543412 141.678933,17.4810515 C141.678933,20.6405175 139.017027,24 134.08584,24 M95.9498917,24 L81.8242943,8.47234431 L81.5668508,8.47234431 L81.5340491,8.65046853 L81.5340491,23.1989386 C81.5340491,23.4208475 81.3571189,23.6616635 81.0698556,23.6616635 L77.9954434,23.6616635 C77.7558917,23.6616635 77.5312499,23.4367692 77.5312499,23.1989386 L77.5312499,0.4308815 C77.5312499,0.2010117 77.7489338,0 77.9954434,0 L78.76181,0 L92.8198159,14.9524836 L93.0762655,14.9524836 L93.1110551,14.7743594 L93.1110551,0.80305166 C93.1110551,0.5791525 93.2869914,0.33833651 93.5732607,0.33833651 L96.6824626,0.33833651 C96.9210203,0.33833651 97.1446681,0.56422589 97.1446681,0.80305166 L97.1446681,23.5711087 C97.1446681,23.7989883 96.9289722,24 96.6824626,24 L95.9498917,24 M58.4635324,24 C58.2726862,24 58.1444614,23.9154159 58.0480444,23.7263455 L52.0224747,10.3331951 L51.6527102,10.3331951 L49.6706934,23.3064102 C49.6498196,23.4507007 49.4579795,23.6616635 49.2383076,23.6616635 L46.197691,23.6616635 C46.0356706,23.6616635 45.9074458,23.6119081 45.8259386,23.5173729 C45.7384675,23.4168671 45.7066598,23.2685961 45.7315095,23.0874865 L49.7512066,0.35923377 C49.7641285,0.2696741 49.8257559,0 50.1855804,0 L50.7253172,0 C50.9131814,0 51.0642679,0.08756945 51.1398112,0.23882577 L58.6195888,16.3068248 L58.9495937,16.3068248 L66.4313593,0.23484534 C66.5138605,0.07164774 66.6371153,0 66.8448593,0 L67.383602,0 C67.7434266,0 67.805054,0.2696741 67.8159879,0.35226802 L71.8048713,23.0934572 C71.8436369,23.2735716 71.8207751,23.4168671 71.7412559,23.5163778 C71.6647186,23.6099179 71.5335119,23.6616635 71.3714915,23.6616635 L68.2960852,23.6616635 C68.0734314,23.6616635 67.8736393,23.4417448 67.8279158,23.2845178 L65.8150852,10.3331951 L65.4443268,10.3331951 L59.4823725,23.7343063 C59.4356549,23.8716311 59.3094182,24 59.0728485,24 L58.4635324,24 M32.1297451,23.323327 C31.8444699,23.323327 31.6675396,23.082511 31.6675396,22.860602 L31.6675396,12.0457749 L23.9313125,0.7015507 C23.8388714,0.5512895 23.8299254,0.37017995 23.9114327,0.22389916 C23.9909519,0.08159881 24.1420384,0 24.3249327,0 L27.7710973,0 C27.9231778,0 28.0494146,0.07363795 28.1667055,0.23285513 L33.7171478,8.22058214 L39.270572,0.22787959 C39.3868689,0.07463305 39.5140997,0 39.6661802,0 L43.1471345,0 C43.3290348,0 43.4801213,0.0815988 43.5596406,0.22489427 C43.6411478,0.37017995 43.6312079,0.55128949 43.5337968,0.70851647 L35.7011526,12.0109462 L35.7011526,22.860602 C35.7011526,23.0984327 35.4775047,23.323327 35.239941,23.323327 L32.1297451,23.323327 M11.9527344,23.9661663 C5.2502572,23.9661663 0,18.7249357 0,12.0338337 C0,5.39845758 5.36257812,0 11.9527344,0 C14.8522043,0 17.7397464,1.10357409 20.0815877,3.10373995 C20.1809867,3.20325068 20.2406262,3.33659507 20.2406262,3.47192968 C20.2406262,3.59134257 20.1939086,3.69980927 20.1074315,3.78837383 L18.0091178,5.99054648 C17.9117067,6.0870719 17.8103197,6.13782237 17.7109206,6.13782237 C17.6075456,6.13782237 17.4952247,6.08408657 17.3769399,5.9796003 C15.915774,4.68496559 14.0619819,3.9724687 12.1565024,3.9724687 C7.88532571,3.9724687 4.40834735,7.57376234 4.40834735,12.0009951 C4.40834735,16.3705117 7.89924157,19.9270255 12.1902981,19.9270255 C14.1365312,19.9270255 15.6364627,19.3249855 16.2775865,19.0672527 L16.3889134,19.0224728 L16.3889134,15.8470852 L13.5083293,15.8470852 C13.2439279,15.8470852 13.0441358,15.6619952 13.0441358,15.4171988 L13.0441358,12.7453354 C13.0441358,12.4716809 13.2349819,12.2806203 13.5083293,12.2806203 L19.9961045,12.2806203 C20.2247223,12.2806203 20.4255084,12.4985488 20.4255084,12.7453354 L20.4255084,21.405755 C20.4255084,21.5709429 20.357917,21.7052824 20.2277043,21.8018078 C20.2038485,21.8157393 16.740786,23.9661663 11.9527344,23.9661663" id="loogtype" fill="#FFFFFF" fill-rule="nonzero"></path>
    <mask id="mask-1" fill="white">
      <use xlink:href="#path-1"></use>
    </mask>
    <use id="crossbar" fill="#0077C8" fill-rule="nonzero" xlink:href="#path-1"></use>
    <mask id="mask-2" fill="white">
      <use xlink:href="#path-2"></use>
    </mask>
    <use id="Aquent-A" fill="#0066CC" fill-rule="nonzero" xlink:href="#path-3"></use>
    <g id="pride-colors" mask="url(#mask-2)" fill-rule="nonzero">
      <g transform="translate(101, 0)">
        <rect id="purple" fill="#663399" x="0" y="19.7" width="22.25" height="3.94"></rect>
        <rect id="blue" fill="#0077C8" x="0" y="15.76" width="22.25" height="3.94"></rect>
        <rect id="green" fill="#008000" x="0" y="11.82" width="22.25" height="3.94"></rect>
        <rect id="yellow" fill="#FFCC00" x="0" y="7.88" width="22.25" height="3.94"></rect>
        <rect id="orange" fill="#FE5F14" x="0" y="3.94" width="22.25" height="3.94"></rect>
        <rect id="red" fill="#FF0000" x="0" y="0" width="22.25" height="3.94"></rect>
      </g>
    </g>
  </g>
  </g>
</svg>
